production/assets/icons/info.svg

<svg xmlns="http://www.w3.org/2000/svg" width="16" height="16" viewBox="0 0 16 16"><path fill-rule="evenodd" clip-rule="evenodd" d="M13.657 2.343A7.975 7.975 0 0 0 8 0a7.975 7.975 0 0 0-5.657 2.343A7.977 7.977 0 0 0 0 8a7.98 7.98 0 0 0 2.342 5.657A7.983 7.983 0 0 0 8 16a7.982 7.982 0 0 0 5.657-2.343A7.98 7.98 0 0 0 16 8c0-2.21-.896-4.209-2.343-5.657zm-.384 10.931A7.432 7.432 0 0 1 8 15.459a7.437 7.437 0 0 1-5.275-2.185A7.436 7.436 0 0 1 .541 8c0-2.061.835-3.926 2.184-5.274A7.435 7.435 0 0 1 8 .54c2.059 0 3.924.835 5.273 2.186A7.426 7.426 0 0 1 15.459 8a7.43 7.43 0 0 1-2.186 5.274zM8.3 12.472c-.139 0-.207-.12-.207-.24 0-1.222 1.973-4.248 1.973-6.053 0-.652-.43-.945-1.049-.945-1.962-.018-3.119 1.396-3.735 3.044.922-1.172 1.556-1.714 1.898-1.618.138 0 .206.119.206.24 0 1.221-1.972 4.247-1.972 6.053 0 .652.429.944 1.048.944 1.963.019 3.122-1.396 3.737-3.044-.924 1.171-1.558 1.714-1.899 1.619zm1.065-10.37a1.353 1.353 0 1 0-.002 2.706 1.353 1.353 0 0 0 .002-2.706z"/></svg>

<?xml version="1.0" encoding="utf-8"?>
<!-- Generator: Adobe Illustrator 16.0.0, SVG Export Plug-In . SVG Version: 6.00 Build 0)  -->
<!DOCTYPE svg PUBLIC "-//W3C//DTD SVG 1.1//EN" "http://www.w3.org/Graphics/SVG/1.1/DTD/svg11.dtd">
<svg version="1.1" id="Layer_1" xmlns="http://www.w3.org/2000/svg" xmlns:xlink="http://www.w3.org/1999/xlink" x="0px" y="0px"
	 width="16px" height="16px" viewBox="0 0 16 16" enable-background="new 0 0 16 16" xml:space="preserve">
<g>
	<g>
		<path fill-rule="evenodd" clip-rule="evenodd" d="M13.657,2.343C12.209,0.895,10.209,0,8,0C5.791,0,3.791,0.895,2.343,2.343
			C0.896,3.791,0,5.79,0,8c0,2.208,0.895,4.209,2.342,5.657C3.791,15.104,5.791,16,8,16c2.208,0,4.208-0.896,5.657-2.343
			C15.104,12.209,16,10.208,16,8C16,5.79,15.104,3.791,13.657,2.343z M13.273,13.274c-1.349,1.35-3.214,2.185-5.273,2.185
			c-2.06,0-3.925-0.835-5.275-2.185C1.376,11.925,0.541,10.06,0.541,8c0-2.061,0.835-3.926,2.184-5.274
			C4.076,1.375,5.94,0.54,8,0.54c2.059,0,3.924,0.835,5.273,2.186C14.624,4.074,15.459,5.939,15.459,8
			C15.459,10.06,14.624,11.925,13.273,13.274z M8.3,12.472c-0.139,0-0.207-0.12-0.207-0.24c0-1.222,1.973-4.248,1.973-6.053
			c0-0.652-0.43-0.945-1.049-0.945C7.055,5.216,5.898,6.63,5.282,8.278C6.204,7.106,6.838,6.564,7.18,6.66
			c0.138,0,0.206,0.119,0.206,0.24c0,1.221-1.972,4.247-1.972,6.053c0,0.652,0.429,0.944,1.048,0.944
			c1.963,0.019,3.122-1.396,3.737-3.044C9.275,12.024,8.641,12.567,8.3,12.472z M9.365,2.102c-0.748,0-1.354,0.605-1.354,1.354
			c0,0.747,0.606,1.354,1.354,1.354c0.747,0,1.353-0.606,1.353-1.354C10.718,2.707,10.112,2.102,9.365,2.102z"/>
	</g>
</g>
</svg>
